assets/svg/iconhourglass.svg

<svg width="14" height="14" viewBox="0 0 14 14" fill="none" xmlns="http://www.w3.org/2000/svg">
<g clip-path="url(#clip0_56954_369940)">
<rect x="0.582031" y="0.583008" width="12.8333" height="12.8333" rx="4" fill="#FFA143"/>
<path d="M9.90936 10.117C9.75004 8.71532 9.11038 8.13435 8.64317 7.71071C8.32015 7.41667 8.16483 7.26373 8.16483 6.9974C8.16483 6.73472 8.3196 6.58469 8.64171 6.29667C9.11439 5.8743 9.76171 5.29571 9.90973 3.87511C9.92156 3.75576 9.90821 3.63525 9.87052 3.52139C9.83284 3.40753 9.77167 3.30285 9.69098 3.21412C9.6048 3.11935 9.49972 3.04368 9.38252 2.992C9.26531 2.94032 9.13858 2.91377 9.01048 2.91407H4.98585C4.85758 2.91367 4.73065 2.94016 4.61325 2.99184C4.49585 3.04353 4.39059 3.11925 4.30426 3.21412C4.22381 3.30297 4.16287 3.4077 4.12538 3.52155C4.08789 3.6354 4.07468 3.75584 4.0866 3.87511C4.23408 5.29115 4.87903 5.86555 5.34989 6.28482C5.67509 6.57448 5.8315 6.7256 5.8315 6.9974C5.8315 7.27266 5.67473 7.42688 5.34843 7.72201C4.88358 8.1431 4.24556 8.71969 4.08697 10.117C4.0741 10.2358 4.08645 10.356 4.1232 10.4697C4.15995 10.5834 4.22028 10.688 4.30025 10.7769C4.38676 10.8728 4.49253 10.9495 4.61066 11.0019C4.72879 11.0542 4.85663 11.0811 4.98585 11.0807H9.01048C9.1397 11.0811 9.26754 11.0542 9.38567 11.0019C9.5038 10.9495 9.60957 10.8728 9.69608 10.7769C9.77605 10.688 9.83638 10.5834 9.87313 10.4697C9.90988 10.356 9.92223 10.2358 9.90936 10.117ZM8.58957 10.2057H5.4146C5.13022 10.2057 5.05002 9.87761 5.24944 9.67417C5.73215 9.1849 6.7065 8.83454 6.7065 8.27344V6.41407C6.7065 6.05222 6.01379 5.77605 5.58522 5.18907C5.51449 5.09227 5.5216 4.95573 5.70134 4.95573H8.30319C8.4565 4.95573 8.48949 5.09118 8.41986 5.18816C7.99749 5.77605 7.28983 6.0504 7.28983 6.41407V8.27344C7.28983 8.82998 8.30538 9.13021 8.75546 9.67472C8.93684 9.8942 8.8734 10.2057 8.58957 10.2057Z" fill="white"/>
</g>
<defs>
<clipPath id="clip0_56954_369940">
<rect width="14" height="14" fill="white"/>
</clipPath>
</defs>
</svg>

<svg xmlns="http://www.w3.org/2000/svg" width="14" height="14" fill="none"><g clip-path="url(#a)"><rect width="12.833" height="12.833" x=".582" y=".583" fill="#FFA143" rx="4"/><path fill="#fff" d="M9.91 10.117c-.16-1.402-.8-1.983-1.267-2.406-.323-.294-.478-.447-.478-.714 0-.262.155-.412.477-.7.472-.423 1.12-1.001 1.268-2.422a.86.86 0 0 0-.219-.66.92.92 0 0 0-.68-.3H4.985a.92.92 0 0 0-.682.3.86.86 0 0 0-.217.66c.147 1.416.792 1.99 1.263 2.41.325.29.482.44.482.712 0 .276-.157.43-.484.725-.464.421-1.102.998-1.261 2.395a.85.85 0 0 0 .213.66.92.92 0 0 0 .686.304H9.01a.92.92 0 0 0 .686-.304.85.85 0 0 0 .213-.66m-1.32.089H5.415c-.285 0-.365-.328-.166-.532.483-.49 1.458-.84 1.458-1.4v-1.86c0-.362-.693-.638-1.122-1.225-.07-.097-.063-.233.116-.233h2.602c.153 0 .186.135.117.232-.423.588-1.13.862-1.13 1.226v1.86c0 .556 1.015.856 1.465 1.4.182.22.118.532-.165.532"/></g><defs><clipPath id="a"><path fill="#fff" d="M0 0h14v14H0z"/></clipPath></defs></svg>
